X: 104
T: Tao hai shan dan    (?) A cubit of sandalwood
%%abc-version 2.0
%%abcx-abcm2ps-target-version 5.9.1 (29 Sep 2008)
%%abc-creator hum2abc beta
%%abcx-conversion-date 2013/10/02 07:44:27
%%abc-edited-by Helmut Schaffrath
%%humdrum-veritas 3747360496
%%humdrum-veritas-data 310422499
%%continueall 1
%%barnumbers 0
L: 1/8
M: 2/4
K: C
G2c3/ A/ [I:setbarnb 1]| 
c A G E | 
z D E G | 
c3G | 
c A/ G/ E D | 
C4 | 
G2G E | 
D EG2 | 
z G, A, C | 
E3G | 
D D/ C/ A, D | 
G,4 |]  



